icons/desktop/16/svg/routed-16.svg

<svg width="16" height="16" viewBox="0 0 16 16" fill="none" xmlns="http://www.w3.org/2000/svg">
<path d="M11.6468 0.647959C11.8418 0.452959 12.1588 0.452959 12.3538 0.647959L14.8528 3.14698C15.1676 3.462 14.9442 3.99952 14.4993 3.99952H12.7503V6.73292C12.7502 8.42866 11.7749 9.92928 10.2962 10.7583C9.34119 11.2943 8.7503 12.3009 8.7503 13.3999V15.2495C8.7503 15.6634 8.41407 15.9993 8.0003 15.9995C7.5863 15.9995 7.2503 15.6635 7.2503 15.2495V13.3999C7.2503 11.704 8.22454 10.2026 9.70342 9.37354C10.6584 8.83757 11.2502 7.83185 11.2503 6.73292V3.99952H9.50127C9.05634 3.99952 8.83297 3.462 9.14776 3.14698L11.6468 0.647959Z" fill="black"/>
<path d="M4.8001 7.26808C4.89015 7.78894 5.12011 8.28884 5.47002 8.69874C5.72 8.98869 6.01995 9.22798 6.34991 9.39796C6.56984 9.51793 6.76979 9.64785 6.93975 9.77882C6.96975 9.79882 6.96951 9.82915 6.94951 9.84815L6.10967 10.9673C6.09967 10.9773 6.0894 10.9888 6.0794 10.9888L6.06963 10.9898C6.05969 10.9898 6.0493 10.9899 6.03936 10.979C5.91941 10.8891 5.78964 10.799 5.64971 10.729C5.14988 10.4591 4.71006 10.109 4.34014 9.67921C4.34014 9.67921 4.3294 9.67847 4.3294 9.66847C3.79864 9.04462 3.44486 8.28578 3.31084 7.47706L4.79326 7.21925L4.8001 7.26808Z" fill="black"/>
<path d="M3.6458 0.646982C3.8408 0.451982 4.15783 0.451982 4.35283 0.646982L6.85186 3.14601C7.16662 3.46103 6.94327 3.99854 6.49834 3.99854H4.7503V5.94972H3.2503V3.99854L1.50127 3.99952C1.05634 3.99952 0.832955 3.462 1.14776 3.14698L3.6458 0.646982Z" fill="black"/>
</svg>

<!-- This Source Code Form is subject to the terms of the Mozilla Public
   - License, v. 2.0. If a copy of the MPL was not distributed with this
   - file, You can obtain one at http://mozilla.org/MPL/2.0/. -->
<svg xmlns="http://www.w3.org/2000/svg" width="16" height="16" fill="context-fill" fill-opacity="context-fill-opacity" viewBox="0 0 16 16">
    <path d="M11.647.648a.5.5 0 0 1 .707 0l2.499 2.499a.5.5 0 0 1-.354.853H12.75v2.733c0 1.696-.975 3.196-2.454 4.025A3.03 3.03 0 0 0 8.75 13.4v1.85a.75.75 0 0 1-1.5 0V13.4c0-1.696.975-3.197 2.453-4.026a3.02 3.02 0 0 0 1.547-2.641V4H9.501a.5.5 0 0 1-.353-.853zM4.8 7.268a2.957 2.957 0 0 0 1.55 2.13c.22.12.42.25.59.38.03.02.03.051.01.07l-.84 1.12c-.01.01-.02.02-.03.02l-.01.002c-.01 0-.02 0-.03-.011a2.6 2.6 0 0 0-.39-.25c-.5-.27-.94-.62-1.31-1.05 0 0-.01 0-.01-.01a4.53 4.53 0 0 1-1.02-2.192l1.483-.258zM3.646.647a.5.5 0 0 1 .707 0l2.499 2.499a.5.5 0 0 1-.354.853H4.75v1.95h-1.5V4H1.501a.5.5 0 0 1-.353-.852z" />
</svg>
